X:1045
T:McArdle's Favorite
R:double jig
N:"collected by J. O'Neill"
B:O'Neill's 1045
Z:Transcribed by henrik.norbeck@mailbox.swipnet.se
M:6/8
L:1/8
K:A
EAA cAA|eAA cBA|fga ecA|BcB cBAF|
EAA cAA|eAA cBA|fga ecA|BcB A2 z:|
eab c'af|.ece aec|eab c'af|d'c'b c'af|
.eab c'af|.ece aec|fga ecA|BcB A2 z:|
